X:1
T:Tacoma, CMD
T:Tacoma, CMD
T:Charles Hutchinson Gabriel, 1918
T:Public Domain Courtesy of the Cyber Hymnal™
C:Charles Hutchinson Gabriel, 1918
Z:Public Domain
Z:Courtesy of the Cyber Hymnal™
%%score ( 1 2 ) ( 3 4 )
L:1/8
Q:1/4=98
M:3/4
K:Eb
V:1 treble 
V:2 treble 
V:3 bass 
V:4 bass 
V:1
 E[EF] [EG] | [GB]3 [Ac] [EG][DF] | E3 [EF] [EG][GB] | [Ge]4 [Ac]2 | [GB]3 [GB] [Gc][Ge] | %5
 [Ad]3 [DA] [AB][Ac] | [GB]3 E [EF][EG] | (B2 G2) [DF]2 | E4 z [GB] | [GB][EG] [Ge]3 [Ge] | %10
 [Ae][Ad] [Ad]3 [Ac] | [Ac][Ad] [Ad]3 [Ac] | ([Ac]2 [GB]2) z [GB] | [GB][EG] [Ge]3 [Ee] | %14
 [Ed][Ec] [Ec]2 [^Fe]2 | [GB]3 [EG] [DG][DF] | E3 |] %17
V:2
 E x2 | x6 | E3 x3 | x6 | x6 | x6 | x3 E x2 | E4 x2 | E4 x2 | x6 | x6 | x6 | x6 | x6 | x6 | x6 | %16
 E3 |] %17
V:3
 [E,G,][E,A,] [E,B,] | [E,E]3 [A,,E] [B,,B,][B,,A,] | [E,G,]3 [E,A,] [E,B,][E,E] | [E,B,]4 [E,E]2 | %4
 [E,E]3 [E,E] [E,E][E,B,] | [F,B,]3 [F,B,] [B,,D][B,,D] | [E,E]3 [E,G,] [E,A,][E,B,] | %7
 (G,2 B,2) [B,,A,]2 | [E,G,]4 z [E,E] | [E,E][E,B,] [E,B,]3 [E,B,] | [F,B,][F,B,] [B,F]3 [B,D] | %11
 [B,D][B,F] [B,F]3 [B,,B,D] | [E,E]4 z [E,E] | [E,E][E,B,] [E,B,]3 [G,B,] | [A,B,]A, A,2 [A,C]2 | %15
 [B,E]3 B, [B,,B,][B,,A,] | [E,G,]3 |] %17
V:4
 x3 | x6 | x6 | x6 | x6 | x6 | x6 | B,,4 x2 | x6 | x6 | x6 | x6 | x6 | x6 | x A, A,2 x2 | %15
 x3 B, x2 | x3 |] %17

